static/images/pieces/merida/bAr.svg

<svg clip-rule="evenodd" fill-rule="evenodd" height="177.17" image-rendering="optimizeQuality" shape-rendering="geometricPrecision" viewBox="0 0 50 50" width="177.17" xmlns="http://www.w3.org/2000/svg" xmlns:xlink="http://www.w3.org/1999/xlink"><linearGradient id="a"><stop offset="0" stop-color="#fff"/><stop offset="1" stop-color="#b3b3b3"/></linearGradient><linearGradient id="b"><stop offset="0" stop-color="#fff"/><stop offset="1" stop-color="#e6e6e6"/></linearGradient><linearGradient id="c" gradientUnits="userSpaceOnUse" x1="1.793643" x2="12.63324" xlink:href="#a" y1="74.318817" y2="73.869385"/><linearGradient id="d" gradientUnits="userSpaceOnUse" x1="1.263982" x2="12.63324" xlink:href="#a" y1="73.895088" y2="73.869385"/><linearGradient id="e" gradientUnits="userSpaceOnUse" x1="-2.619062" x2="1.907533" xlink:href="#a" y1="90.638878" y2="90.638878"/><linearGradient id="f" gradientUnits="userSpaceOnUse" x1="-1.583916" x2=".810332" y1="87.221397" y2="87.274361"><stop offset="0" stop-color="#fff"/><stop offset="1" stop-color="#ccc"/></linearGradient><linearGradient id="g" gradientUnits="userSpaceOnUse" x1="-2.455736" x2="1.805086" xlink:href="#b" y1="74.665129" y2="74.665129"/><linearGradient id="h" gradientUnits="userSpaceOnUse" x1="-2.508196" x2="1.752626" xlink:href="#b" y1="74.568955" y2="74.568955"/><linearGradient id="i" gradientUnits="userSpaceOnUse" x1="-2.455736" x2="1.805086" xlink:href="#b" y1="74.568955" y2="74.568955"/><g fill="url(#c)" transform="translate(25.211864 -48.303673)"><path d="m.5859365 56.17703c.7960066-1.020015-.3788487-2.345177-1.3068235-2.345578-.7032446.06761-2.4032857 1.12243-1.3068233 2.479612-1.5679946 6.247019-4.6143343 11.207329-10.9907077 13.269271.772685 5.835682 4.7398273 9.845965 7.5058526 14.542581-.402536.380608-1.2797124.749544-1.8262037 1.189546.084992.995123.2798869 1.916985 1.2900669 2.295318l-1.8094413 2.479607s-1.3033945-.221657-1.7187392.177365c-.26616.255694-.1577336 1.095956-.1577336 1.095956l-2.6806577 2.546622h23.120695l-2.2785577-2.479606s.06342-.993607-.268067-1.273321c-.4442301-.374822-1.7424273-.06704-1.7424273-.06704l-1.8094474-2.747666c.7128332-.34693 1.4409757-.672792 1.4576084-1.976998-.529628-.512006-1.1706496-.799362-1.6586569-1.172787 2.4587172-4.724947 6.4543829-8.785262 6.8356849-14.408548-5.1812397-3.053521-9.3828802-6.997612-10.6556275-13.604334z" fill="#1f1a17" stroke="#1f1a17" stroke-width="1.693289"/><path d="m-3.7555256 87.274357h6.2078065" fill="url(#c)" stroke="url(#f)" stroke-width=".563051"/><path d="m-5.7970285 90.638876h10.1410015" fill="url(#d)" stroke="url(#e)" stroke-width=".563051"/><g stroke-width="1.693289"><circle cx="-5.252363" cy="72.549019" fill="url(#g)" r=".699949" stroke="url(#g)" stroke-linecap="square"/><circle cx="3.754255" cy="72.461586" fill="url(#g)" r=".699949" stroke="url(#g)" stroke-linecap="square"/><circle cx="-.810248" cy="68.83271" fill="url(#h)" r=".699949" stroke="url(#h)" stroke-linecap="square"/><circle cx="-.810233" cy="80.305206" fill="url(#h)" r=".699949" stroke="url(#h)" stroke-linecap="square"/><path d="m-4.3429314 72.103065h7.2577571v.80447h-7.2752471z" fill="url(#i)" stroke="url(#i)"/><path d="m-.5134593 69.856275v9.75254h-.5935622v-9.77604z" fill="url(#i)" stroke="url(#i)"/></g></g></svg>

<?xml version="1.0" encoding="UTF-8" standalone="no"?>
<svg
   xmlns:dc="http://purl.org/dc/elements/1.1/"
   xmlns:cc="http://creativecommons.org/ns#"
   xmlns:rdf="http://www.w3.org/1999/02/22-rdf-syntax-ns#"
   xmlns:svg="http://www.w3.org/2000/svg"
   xmlns="http://www.w3.org/2000/svg"
   xmlns:xlink="http://www.w3.org/1999/xlink"
   xmlns:sodipodi="http://sodipodi.sourceforge.net/DTD/sodipodi-0.dtd"
   xmlns:inkscape="http://www.inkscape.org/namespaces/inkscape"
   inkscape:version="1.0 (4035a4fb49, 2020-05-01)"
   sodipodi:docname="bAr.svg"
   id="svg7104"
   version="1.1"
   viewBox="0 0 50 50"
   clip-rule="evenodd"
   fill-rule="evenodd"
   image-rendering="optimizeQuality"
   shape-rendering="geometricPrecision"
   height="177.17"
   width="177.17">
  <metadata
     id="metadata7108">
    <rdf:RDF>
      <cc:Work
         rdf:about="">
        <dc:format>image/svg+xml</dc:format>
        <dc:type
           rdf:resource="http://purl.org/dc/dcmitype/StillImage" />
        <dc:title />
      </cc:Work>
    </rdf:RDF>
  </metadata>
  <sodipodi:namedview
     inkscape:document-rotation="0"
     inkscape:snap-nodes="false"
     inkscape:current-layer="g32536"
     inkscape:window-maximized="0"
     inkscape:window-y="183"
     inkscape:window-x="243"
     inkscape:cy="81.163119"
     inkscape:cx="81.368408"
     inkscape:zoom="5.3377647"
     inkscape:object-nodes="false"
     showgrid="false"
     id="namedview7106"
     inkscape:window-height="729"
     inkscape:window-width="958"
     inkscape:pageshadow="2"
     inkscape:pageopacity="0"
     guidetolerance="10"
     gridtolerance="10"
     objecttolerance="10"
     borderopacity="1"
     bordercolor="#666666"
     pagecolor="#ffffff" />
  <defs
     id="defs7098">
    <linearGradient
       inkscape:collect="always"
       id="linearGradient33800">
      <stop
         style="stop-color:#ffffff;stop-opacity:1"
         offset="0"
         id="stop33796" />
      <stop
         style="stop-color:#b3b3b3;stop-opacity:1"
         offset="1"
         id="stop33798" />
    </linearGradient>
    <linearGradient
       inkscape:collect="always"
       id="linearGradient33794">
      <stop
         style="stop-color:#ffffff;stop-opacity:1"
         offset="0"
         id="stop33790" />
      <stop
         style="stop-color:#cccccc;stop-opacity:1"
         offset="1"
         id="stop33792" />
    </linearGradient>
    <linearGradient
       id="linearGradient33776"
       inkscape:collect="always">
      <stop
         id="stop33772"
         offset="0"
         style="stop-color:#ffffff;stop-opacity:1" />
      <stop
         id="stop33774"
         offset="1"
         style="stop-color:#e6e6e6;stop-opacity:1" />
    </linearGradient>
    <linearGradient
       id="linearGradient33768"
       inkscape:collect="always">
      <stop
         id="stop33764"
         offset="0"
         style="stop-color:#ffffff;stop-opacity:1" />
      <stop
         id="stop33766"
         offset="1"
         style="stop-color:#e6e6e6;stop-opacity:1" />
    </linearGradient>
    <linearGradient
       id="linearGradient32542"
       inkscape:collect="always">
      <stop
         id="stop32538"
         offset="0"
         style="stop-color:#ffffff;stop-opacity:1" />
      <stop
         id="stop32540"
         offset="1"
         style="stop-color:#b3b3b3;stop-opacity:1" />
    </linearGradient>
    <linearGradient
       gradientUnits="userSpaceOnUse"
       y2="73.869385"
       x2="12.63324"
       y1="74.318817"
       x1="1.7936434"
       id="linearGradient32544"
       xlink:href="#linearGradient32542"
       inkscape:collect="always" />
    <linearGradient
       y2="73.869385"
       x2="12.63324"
       y1="74.318817"
       x1="1.7936434"
       gradientUnits="userSpaceOnUse"
       id="linearGradient32548"
       xlink:href="#linearGradient32542"
       inkscape:collect="always" />
    <linearGradient
       y2="73.869385"
       x2="12.63324"
       y1="73.895088"
       x1="1.2639823"
       gradientUnits="userSpaceOnUse"
       id="linearGradient32550"
       xlink:href="#linearGradient32542"
       inkscape:collect="always" />
    <linearGradient
       gradientUnits="userSpaceOnUse"
       y2="90.638878"
       x2="1.9075325"
       y1="90.638878"
       x1="-2.6190624"
       id="linearGradient33786"
       xlink:href="#linearGradient33800"
       inkscape:collect="always" />
    <linearGradient
       gradientUnits="userSpaceOnUse"
       y2="87.274361"
       x2="0.81033188"
       y1="87.221397"
       x1="-1.5839155"
       id="linearGradient33788"
       xlink:href="#linearGradient33794"
       inkscape:collect="always" />
    <linearGradient
       gradientTransform="translate(-2.3969721,-44.247811)"
       y2="118.91294"
       x2="4.2020578"
       y1="118.91294"
       x1="-0.058763873"
       gradientUnits="userSpaceOnUse"
       id="linearGradient33802"
       xlink:href="#linearGradient33768"
       inkscape:collect="always" />
    <linearGradient
       gradientTransform="translate(-2.3969721,-44.247811)"
       y2="118.91294"
       x2="4.2020578"
       y1="118.91294"
       x1="-0.058763873"
       gradientUnits="userSpaceOnUse"
       id="linearGradient33804"
       xlink:href="#linearGradient33776"
       inkscape:collect="always" />
    <linearGradient
       gradientTransform="translate(-2.3969721,-44.247811)"
       y2="118.91294"
       x2="4.2020578"
       y1="118.91294"
       x1="-0.058763873"
       gradientUnits="userSpaceOnUse"
       id="linearGradient33806"
       xlink:href="#linearGradient33768"
       inkscape:collect="always" />
    <linearGradient
       gradientTransform="translate(-2.3969721,-44.247811)"
       y2="118.91294"
       x2="4.2020578"
       y1="118.91294"
       x1="-0.058763873"
       gradientUnits="userSpaceOnUse"
       id="linearGradient33808"
       xlink:href="#linearGradient33776"
       inkscape:collect="always" />
    <linearGradient
       gradientTransform="translate(-2.449432,-44.343985)"
       y2="118.91294"
       x2="4.2020578"
       y1="118.91294"
       x1="-0.058763873"
       gradientUnits="userSpaceOnUse"
       id="linearGradient33810"
       xlink:href="#linearGradient33768"
       inkscape:collect="always" />
    <linearGradient
       gradientTransform="translate(-2.449432,-44.343985)"
       y2="118.91294"
       x2="4.2020578"
       y1="118.91294"
       x1="-0.058763873"
       gradientUnits="userSpaceOnUse"
       id="linearGradient33812"
       xlink:href="#linearGradient33776"
       inkscape:collect="always" />
    <linearGradient
       gradientTransform="translate(-2.449432,-44.343985)"
       y2="118.91294"
       x2="4.2020578"
       y1="118.91294"
       x1="-0.058763873"
       gradientUnits="userSpaceOnUse"
       id="linearGradient33814"
       xlink:href="#linearGradient33768"
       inkscape:collect="always" />
    <linearGradient
       gradientTransform="translate(-2.449432,-44.343985)"
       y2="118.91294"
       x2="4.2020578"
       y1="118.91294"
       x1="-0.058763873"
       gradientUnits="userSpaceOnUse"
       id="linearGradient33816"
       xlink:href="#linearGradient33776"
       inkscape:collect="always" />
    <linearGradient
       gradientTransform="translate(-2.3969721,-44.343985)"
       y2="118.91294"
       x2="4.2020578"
       y1="118.91294"
       x1="-0.058763873"
       gradientUnits="userSpaceOnUse"
       id="linearGradient33818"
       xlink:href="#linearGradient33768"
       inkscape:collect="always" />
    <linearGradient
       gradientTransform="translate(-2.3969721,-44.343985)"
       y2="118.91294"
       x2="4.2020578"
       y1="118.91294"
       x1="-0.058763873"
       gradientUnits="userSpaceOnUse"
       id="linearGradient33820"
       xlink:href="#linearGradient33776"
       inkscape:collect="always" />
    <linearGradient
       gradientTransform="translate(-2.3969721,-44.343985)"
       y2="118.91294"
       x2="4.2020578"
       y1="118.91294"
       x1="-0.058763873"
       gradientUnits="userSpaceOnUse"
       id="linearGradient33822"
       xlink:href="#linearGradient33768"
       inkscape:collect="always" />
    <linearGradient
       gradientTransform="translate(-2.3969721,-44.343985)"
       y2="118.91294"
       x2="4.2020578"
       y1="118.91294"
       x1="-0.058763873"
       gradientUnits="userSpaceOnUse"
       id="linearGradient33824"
       xlink:href="#linearGradient33776"
       inkscape:collect="always" />
  </defs>
  <g
     transform="translate(25.211864,-48.303673)"
     style="fill:url(#linearGradient32544);fill-opacity:1"
     id="g32536">
    <path
       style="fill:#1f1a17;fill-opacity:1;stroke:#1f1a17;stroke-width:1.69328892;stroke-linecap:butt;stroke-linejoin:miter;stroke-miterlimit:4;stroke-dasharray:none;stroke-opacity:1"
       d="m 0.5859365,56.17703 c 0.7960066,-1.020015 -0.3788487,-2.345177 -1.3068235,-2.345578 -0.7032446,0.06761 -2.4032857,1.12243 -1.3068233,2.479612 -1.5679946,6.247019 -4.6143343,11.207329 -10.9907077,13.269271 0.772685,5.835682 4.7398273,9.845965 7.5058526,14.542581 -0.402536,0.380608 -1.2797124,0.749544 -1.8262037,1.189546 0.084992,0.995123 0.2798869,1.916985 1.2900669,2.295318 l -1.8094413,2.479607 c 0,0 -1.3033945,-0.221657 -1.7187392,0.177365 -0.26616,0.255694 -0.1577336,1.095956 -0.1577336,1.095956 L -12.415274,93.90733 H 10.705421 L 8.4268633,91.427724 c 0,0 0.06342,-0.993607 -0.268067,-1.273321 C 7.7145662,89.779581 6.416369,90.087363 6.416369,90.087363 L 4.6069216,87.339697 C 5.3197548,86.992767 6.0478973,86.666905 6.06453,85.362699 5.534902,84.850693 4.8938804,84.563337 4.4058731,84.189912 6.8645903,79.464965 10.860256,75.40465 11.241558,69.781364 6.0603183,66.727843 1.8586778,62.783752 0.5859305,56.17703 Z"
       id="path31799"
       inkscape:connector-curvature="0"
       sodipodi:nodetypes="ccccccccaccccacccccc" />
    <path
       style="fill:url(#linearGradient32548);fill-opacity:1;stroke:url(#linearGradient33788);stroke-width:0.56305051px;stroke-linecap:butt;stroke-linejoin:miter;stroke-opacity:1"
       d="M -3.7555256,87.274357 H 2.4522809"
       id="path31801"
       inkscape:connector-curvature="0" />
    <path
       style="fill:url(#linearGradient32550);fill-opacity:1;stroke:url(#linearGradient33786);stroke-width:0.56305051px;stroke-linecap:butt;stroke-linejoin:miter;stroke-opacity:1"
       d="M -5.7970285,90.638876 H 4.343973"
       id="path31803"
       inkscape:connector-curvature="0" />
    <circle
       r="0.69994909"
       cy="72.549019"
       cx="-5.2523627"
       id="path29818-2"
       style="opacity:1;fill:url(#linearGradient33802);fill-opacity:1;stroke:url(#linearGradient33804);stroke-width:1.69328892;stroke-linecap:square;stroke-linejoin:miter;stroke-miterlimit:4;stroke-dasharray:none;stroke-opacity:1;paint-order:normal" />
    <circle
       r="0.69994909"
       cy="72.461586"
       cx="3.7542548"
       id="path29818-3-6"
       style="opacity:1;fill:url(#linearGradient33806);fill-opacity:1;stroke:url(#linearGradient33808);stroke-width:1.69328892;stroke-linecap:square;stroke-linejoin:miter;stroke-miterlimit:4;stroke-dasharray:none;stroke-opacity:1;paint-order:normal" />
    <circle
       r="0.69994909"
       cy="68.83271"
       cx="-0.81024778"
       id="path29818-9-6"
       style="opacity:1;fill:url(#linearGradient33810);fill-opacity:1;stroke:url(#linearGradient33812);stroke-width:1.69328892;stroke-linecap:square;stroke-linejoin:miter;stroke-miterlimit:4;stroke-dasharray:none;stroke-opacity:1;paint-order:normal" />
    <circle
       r="0.69994909"
       cy="80.305206"
       cx="-0.810233"
       id="path29818-99-3"
       style="opacity:1;fill:url(#linearGradient33814);fill-opacity:1;stroke:url(#linearGradient33816);stroke-width:1.69328892;stroke-linecap:square;stroke-linejoin:miter;stroke-miterlimit:4;stroke-dasharray:none;stroke-opacity:1;paint-order:normal" />
    <path
       inkscape:connector-curvature="0"
       id="path29847-7"
       d="m -4.3429314,72.103065 h 7.2577571 v 0.80447 h -7.2752471 z"
       style="fill:url(#linearGradient33818);fill-opacity:1;stroke:url(#linearGradient33820);stroke-width:1.69328892;stroke-linecap:butt;stroke-linejoin:miter;stroke-miterlimit:4;stroke-dasharray:none;stroke-opacity:1" />
    <path
       inkscape:connector-curvature="0"
       id="path29847-3-1"
       d="m -0.5134593,69.856275 v 9.75254 h -0.5935622 v -9.77604 z"
       style="fill:url(#linearGradient33822);fill-opacity:1;stroke:url(#linearGradient33824);stroke-width:1.69328892;stroke-linecap:butt;stroke-linejoin:miter;stroke-miterlimit:4;stroke-dasharray:none;stroke-opacity:1" />
  </g>
</svg>
